X:1
T:Title
%%score { ( 1 4 5 ) | ( 2 3 6 ) }
L:1/8
M:4/4
K:Ab
V:1 treble nm="Grand Piano"
V:4 treble 
V:5 treble 
V:2 bass 
V:3 bass 
V:6 bass 
V:1
 z4 z2 z[Q:1/4=100] E | [CE]2 [CF]>G A B2 c | d2 c>B [Ec]3 c | z4 z .A3 | %4
 [EBe]2 [EBd][EAc] z2 z B | B2 c=d .e2 z B | B2 [=DA][DF] z2 z c | %7
 B-[EB][=DAB=d][FBf] .[EBe]2 [CG][FA] |[M:7/8] G2 z z[K:bass] z z2 |[M:1/8][K:treble] [G,DE] | %10
[M:4/4] [A,CA]2 [A,DA]2 .[A,EA]2 [A,F]2 | [FB]2 B>B z2 z d | z4 z .e3 | c2 BF z2 EE | z4 z .c3 | %15
 z4 f4 | [EBde]2 [GBdf][Bde] [A_c=d] [=ce]2 [FA_d] |[M:7/8] [Ac]2 [EGd]>[DEB] [CEA]3 |] %18
V:2
 z4 z2 z E, | [A,,A,]2 z z/ C/ [A,CE] [A,DE]2 [A,CE] | %2
 [E,B,E]2 [E,A,E]>[E,G,E] [A,,A,]3[K:treble] [A,E] | [DF]2 DD z E2[K:bass] E | %4
 G,2 A,A, [E,G,]2 z[K:treble] E | z4 z .E3[K:bass] | [F,A,=D]2 [B,,B,]2 [E,B,]2 z E | %7
 =D,C,B,,A,, z E z C |[M:7/8] z E[B,,F,]>[B,,=D,A,] E,,3 |[M:1/8] E, |[M:4/4] z4 z .A3[K:treble] | %11
 [=D,A,B,]2 [E,A,B,E]>[E,A,B,E] [F,A,B,=D]2 [G,_D]2 | [A,CE]2 [E,A,CE]2 [C,A,]2 [A,,A,]2 | %13
 [F,A,CE]2 [B,,F,A,]2 [E,G,E]2 [G,B,D]2 | [A,CE]2 [_G,CE]2 [F,A,CF]2 [=E,B,C]2 | %15
 [E,=A,C]2 [D,B,]>[C,A,] [B,,B,]2 z[K:treble] f | z4 z .A3 | %17
[M:7/8] [E,E]2 [E,,E,]>[E,,E,] [A,,E,]3 |] %18
V:3
 x8 | z2 [A,,A,]2 z4 | x7[K:treble] x | z4 C2 z2[K:bass] | z4 z2 E,2[K:treble] | %5
 [A,B,=DF]2 [DF][DF] .E2[K:bass] z E | z4 z2 E,2 | z4 G,,2 A,,2 |[M:7/8] B,,2 z z z z2 |[M:1/8] x | %10
[M:4/4] A,,2 z z/ A/ z2 z[K:treble] c | x8 | x8 | x8 | x8 | z4 z2 [A,,_A,]2[K:treble] | %16
 G,,2 z G z2 C,D, |[M:7/8] x7 |] %18
V:4
 x8 | x8 | x8 | B2 F[FG] .[EB]2 z c | z4 [EB]4 | z4 z .B3 | z4 [EG]4 | .[FA]2 z2 z .B3 | %8
[M:7/8] B, z [=DA]>[B,F][K:bass] [E,G,B,E]3 |[M:1/8][K:treble] x |[M:4/4] x8 | z4 B4 | %12
 c2 c>c .c2 z c | z2 =D2 B4 | A2 A>B .c2 z c | [Fc]2 [Fd]>[Fe] [FBd]2 [FBd]2 | x8 |[M:7/8] x7 |] %18
V:5
 x8 | x8 | x8 | z4 z2 A,2 | z4 z2 G,2 | z4 z2 B,2 | z4 z2 G,2 | x8 |[M:7/8] x4[K:bass] x3 | %9
[M:1/8][K:treble] x |[M:4/4] x8 | z4 z2 E2 | z4 E2 E2 | x8 | z4 z2 G2 | x8 | x8 |[M:7/8] x7 |] %18
V:6
 x8 | x8 | x7[K:treble] x | x7[K:bass] x | x7[K:treble] x | z2 [A,B,]2 [G,B,]2[K:bass] G,2 | x8 | %7
 x8 |[M:7/8] x7 |[M:1/8] x |[M:4/4] z2 B,,2 C,2 D,2[K:treble] | x8 | x8 | x8 | x8 | %15
 x7[K:treble] x | z2 E,,2 A,,2 z2 |[M:7/8] x7 |] %18

